X:1
T:Title
%%score { ( 1 3 ) | 2 }
L:1/8
M:6/8
K:Bb
V:1 treble nm="Grand Piano"
V:3 treble 
V:2 bass 
V:1
 z3 z2[Q:1/4=84] [DF] | [DF]2 [FB] [FB]2 [EA] | [DB]3- [DB]2 [DB] | [GB]2 [GB] [FA]2 [EG] | %4
[M:5/8] [DF]-[DF]- [DF]3 |[M:1/8] [DF] |[M:3/4] [EG]2 [=EG] A2 A | B2 B B2 [Ge] | d2 B B2 A | %9
[M:5/8] [DB]-[DB]- [DB]3 |[M:1/8] [DF] |[M:3/4] z A [FB] c2 F | [Fd]4- [Fd][Fd] | %13
 [^Fd]2 [FA] [GB]2 [Gc] |[M:5/8] [^Fd]-[Fd]- [Fd]3 |[M:1/8] [DF] |[M:3/4] [EG]2 [EG] [FA]2 [FA] | %17
 [FB]2 c d2 [Ge] | d2 B B2 A |[M:5/8] [DB]-[DB]- [DB]3 |] %20
V:2
 z3 z2 [B,,B,] | [B,,B,]2 [D,B,] [F,D]2 [F,C] | [B,,B,]3- [B,,B,]2 [B,,B,] | %3
 [E,B,]2 [E,B,] [E,B,]2 [E,B,] |[M:5/8] [B,,B,]-[B,,B,]- [B,,B,]3 |[M:1/8] [B,,B,] | %6
[M:3/4] [E,B,]2 [C,C] [F,CF]2 [^F,CE] | [G,B,D]2 [F,_A,D] [E,G,E]2 [C,B,] | %8
 [F,B,F]2 [F,DF] [F,CE]2 [F,E] |[M:5/8] [B,,F,]-[B,,F,]- [B,,F,]3 |[M:1/8] [B,,B,] | %11
[M:3/4] [F,A,][E,C] [D,B,] [F,A,F]2 [F,A,] | [B,,B,]4- [B,,B,][B,,B,] | %13
 [D,A,]2 [D,D] [G,D]2 [E,G,] |[M:5/8] [D,A,]-[D,A,]- [D,A,]3 |[M:1/8] [B,,B,] | %16
[M:3/4] [E,B,]2 [C,C] [F,C]2 [E,C] | [D,B,]2[K:treble] [F,A,F] [B,F]2[K:bass] [E,B,] | %18
 [F,B,F]2 [F,DF] [F,CE]2 [F,E] |[M:5/8] [B,,F,]-[B,,F,]- [B,,F,]3 |] %20
V:3
 x6 | x6 | x6 | x6 |[M:5/8] x5 |[M:1/8] x |[M:3/4] x6 | x6 | x6 |[M:5/8] x5 |[M:1/8] x | %11
[M:3/4] F2 z2 z2 | x6 | x6 |[M:5/8] x5 |[M:1/8] x |[M:3/4] x6 | x6 | x6 |[M:5/8] x5 |] %20

